X: 1
T: Impromptu 
N: Transposed
O: Franz Schubert
Z: 
R: waltz
M: 3/4
Q: 1/4=80
L: 1/8
K: A
[P:A](E>F|(.G2).G2.G2) (F>G|A2>G2 F2) (G>F|^E2 ^D>E F2 G>A)|G6 .^E>.F|
.G2 .G2 .G2 .F>.G|A2>>G2 F2 G>F|^E2 ^D>E F2 A>G|F6 (G>A|
|(.B2).B2.B2) (A>G|c2>B2A2) (G>A|^E2 ^D>E F2 B>A|G6) .G>.A|
.B2.B2.B2 .A>.G|c2>>B2 A2 G>F|^E2 ^D>E F2 A>G|F6 (^E>F|
(.G2).G2.G2)(F>G)|{FG}(A2>G2 F2) G>F| ^E2 ^D>E F2 G>A|G6 ^E>F|
G2G2G2 F>G|A2>>G2 F2 G>F|^E2 ^D>E F2 A>G|F6 (G>A|
B2) (.B2.B P2A>G)|(c2>>B2) A2 G>F|^E2 ^D>E F2 B>A|G6 G>A|
B2B2B2 A>G| c2>>B A2 G>F|^E2 ^D>E F2 A>G|F6|(A>G|F6) {F}(A>G|F6)(G>A|
B2) A>G F2 ^E2|F6 (A>G|F6) (F>G|F6) (=G>A|{=G=A}B2) .A>.G .F2 E2|D4 z2 (D>F|
(.A2).A2.A2(.A2)|(B4)A4|=G4F4)|

